<?xml version="1.0" encoding="UTF-8"?>
<map version="1.10" tiledversion="1.11.2" orientation="orthogonal" renderorder="right-down" width="64" height="64" tilewidth="8" tileheight="8" infinite="0" nextlayerid="2" nextobjectid="1">
 <editorsettings>
  <export target="village1.csv" format="csv"/>
 </editorsettings>
 <tileset firstgid="1" source="town_set.tsx"/>
 <tileset firstgid="161" source="town_set.tsx"/>
 <layer id="1" name="Tile Layer 1" width="64" height="64">
  <data encoding="csv">
121,122,121,122,121,122,121,122,121,122,121,122,121,122,121,122,121,122,121,122,121,122,121,122,121,122,121,122,121,122,121,122,121,122,121,122,121,122,121,122,109,109,109,109,109,109,109,109,109,109,109,109,109,109,109,109,109,109,109,109,109,109,109,109,
137,138,135,136,135,136,135,136,135,136,135,136,135,136,135,136,135,136,135,136,135,136,135,136,135,136,135,136,135,136,135,136,135,136,135,136,135,136,135,136,109,109,109,109,109,109,109,109,109,109,109,109,109,109,109,109,109,109,109,109,109,109,109,109,
121,122,13,14,13,14,109,109,109,109,109,109,109,109,109,109,109,109,109,109,109,109,109,109,109,109,109,109,109,109,109,109,109,109,109,109,109,109,109,109,109,109,109,109,109,109,109,109,109,109,109,109,109,109,109,109,121,122,121,122,109,109,109,109,
137,138,13,13,13,13,109,109,109,109,109,109,109,109,109,109,109,109,109,109,109,109,109,109,109,109,109,109,109,109,109,109,109,109,109,109,109,109,109,109,109,109,109,109,109,109,109,109,109,109,109,109,109,109,109,87,135,136,135,136,109,109,109,109,
121,122,13,14,121,122,121,122,121,122,121,122,121,122,121,122,121,122,109,109,109,109,109,109,109,109,109,109,109,109,109,109,109,109,109,109,109,109,109,109,109,109,109,109,109,109,109,109,109,109,109,109,109,109,109,109,109,109,109,109,109,109,109,109,
137,138,15,87,137,138,135,136,135,136,135,136,135,136,135,136,137,138,109,109,109,109,109,109,109,109,109,109,109,109,109,109,109,109,109,109,109,109,109,109,109,109,109,109,109,109,109,109,109,109,109,109,109,109,109,109,109,109,109,109,109,109,109,109,
121,122,109,87,121,122,25,25,25,25,25,2147483676,2147483675,2147483676,2147483675,100,121,122,13,14,109,42,109,109,109,109,109,109,109,109,109,109,109,109,109,109,109,109,109,109,109,109,109,109,109,109,109,109,109,109,109,109,109,109,109,109,109,109,109,109,109,109,109,109,
137,138,109,87,137,138,25,25,25,25,25,2147483692,2147483691,2147483692,2147483691,100,137,138,15,16,109,46,109,109,109,109,109,109,109,109,109,109,109,109,109,109,109,109,109,109,109,109,109,109,109,109,109,109,109,109,109,109,109,109,109,109,109,109,109,109,109,109,109,109,
121,122,109,87,121,122,25,25,25,25,25,33,34,33,34,100,121,122,121,122,13,14,13,14,109,109,109,109,109,109,109,109,109,109,109,109,109,109,109,109,109,109,109,109,109,109,109,109,109,109,109,109,109,109,109,109,109,109,109,109,109,109,109,109,
137,138,109,87,137,138,25,25,25,25,25,2147483689,2147483689,41,41,100,135,136,135,136,15,16,15,16,109,109,109,109,109,109,109,109,109,109,109,109,109,109,109,109,109,109,109,109,109,109,109,109,109,109,109,109,109,109,109,109,109,109,109,109,109,109,109,109,
121,122,109,87,121,122,157,158,25,25,25,25,25,25,25,25,25,25,144,144,144,144,144,144,109,109,109,109,109,109,109,109,109,109,109,109,109,109,109,109,109,87,2147483650,2147483649,2147483650,2147483649,2147483650,2147483649,2147483650,2147483649,2147483650,2147483649,2147483650,2147483649,2147483650,2147483649,109,109,109,109,109,109,109,109,
137,138,109,87,137,138,159,160,25,25,25,25,25,25,25,25,25,25,144,144,144,144,144,144,109,109,109,109,109,109,109,109,109,109,109,109,109,109,109,109,109,87,2147483652,2147483651,2147483652,2147483651,2147483652,2147483651,2147483652,2147483651,2147483652,2147483651,2147483652,2147483651,2147483652,2147483651,109,109,109,109,109,109,109,109,
121,122,109,87,121,122,121,122,121,122,121,122,121,122,121,122,121,122,121,122,144,144,144,144,144,144,144,144,144,144,144,144,144,144,144,144,144,144,144,144,109,87,2147483650,2147483649,5,5,5,5,5,5,5,5,5,6,2147483650,2147483649,109,109,109,109,109,109,121,122,
137,138,109,87,135,136,135,136,135,136,135,136,135,136,135,136,135,136,135,136,144,144,144,144,144,144,144,144,144,144,144,144,144,144,144,144,144,144,144,144,109,87,2147483652,2147483651,7,7,7,7,7,7,7,7,7,8,2147483652,2147483651,109,109,109,109,109,87,137,138,
121,122,109,109,109,109,109,109,109,109,109,109,109,109,109,109,109,109,109,109,144,144,144,144,144,144,144,144,144,144,144,144,144,144,144,144,144,144,144,144,109,87,5,5,2147483673,2147483673,2147483673,2147483676,2147483675,2147483759,2147483759,2147483759,67,100,2147483650,2147483649,109,109,109,109,109,87,121,122,
137,138,109,109,109,109,109,109,109,109,109,109,109,109,109,109,109,109,109,109,144,144,144,144,144,144,144,144,144,144,144,144,144,144,144,144,144,144,144,144,109,87,7,7,2147483673,2147483673,2147483673,2147483692,2147483691,2147483689,2147483689,41,41,100,2147483652,2147483651,109,109,109,109,109,87,135,136,
121,122,113,113,113,113,113,113,113,113,113,113,113,113,113,113,113,113,109,109,144,144,144,144,109,109,109,109,109,109,109,109,109,109,109,109,109,144,144,144,144,144,2147483673,2147483673,2147483673,2147483673,2147483673,2147483673,2147483673,2147483673,2147483673,2147483673,2147483673,100,2147483650,2147483649,109,109,109,109,109,109,109,109,
137,138,129,129,129,129,129,129,129,129,129,129,129,129,129,129,129,129,109,109,144,144,144,144,109,109,109,109,109,109,109,109,109,109,109,109,109,144,144,144,144,144,2147483673,2147483673,2147483673,2147483673,2147483673,2147483673,2147483673,2147483673,2147483673,2147483673,2147483673,100,2147483652,2147483651,109,109,109,109,109,109,109,109,
121,122,109,109,109,109,109,109,109,109,109,109,109,109,109,109,109,109,109,109,144,144,144,144,109,109,109,109,109,109,109,109,109,109,109,109,109,144,144,144,144,144,2147483673,2147483673,2147483673,2147483673,2147483673,2147483673,2147483673,2147483673,2147483673,2147483673,2147483673,100,2147483650,2147483649,109,109,109,109,109,109,109,109,
135,136,109,109,109,109,109,109,109,109,109,109,109,109,109,109,109,109,109,109,144,144,144,144,109,109,109,109,109,109,109,109,109,109,109,109,109,144,144,144,144,144,2147483673,2147483673,2147483673,2147483673,2147483673,2147483673,2147483673,2147483673,2147483673,2147483673,2147483673,100,2147483652,2147483651,109,109,109,109,109,109,109,109,
144,144,144,144,144,144,144,144,144,144,144,144,144,144,144,144,144,144,144,144,144,144,144,144,109,109,109,109,109,109,109,109,109,109,109,109,109,109,109,109,109,87,2147483650,2147483649,23,24,88,2147483673,2147483673,2147483673,2147483673,157,158,100,2147483650,2147483649,109,109,109,109,109,109,121,122,
144,144,144,144,144,144,144,144,144,144,144,144,144,144,144,144,144,144,144,144,144,144,144,144,109,109,109,109,109,109,109,109,109,109,109,109,109,109,109,109,109,87,2147483652,2147483651,107,40,2147483673,2147483673,2147483673,2147483673,2147483673,159,160,100,2147483652,2147483651,109,109,109,109,109,87,135,136,
144,144,144,144,144,144,144,144,144,144,144,144,144,144,144,144,144,144,144,144,144,144,144,144,109,109,109,109,109,109,109,109,109,109,109,109,109,109,109,109,109,87,2147483650,2147483649,2147483650,2147483649,2147483650,2147483649,2147483650,2147483649,2147483650,2147483649,2147483650,2147483649,2147483650,2147483649,109,109,109,109,109,109,109,109,
144,144,144,144,144,144,144,144,144,144,144,144,144,144,144,144,144,144,144,144,144,144,144,144,109,109,109,109,109,109,109,109,109,109,109,109,109,109,109,109,109,87,2147483652,2147483651,2147483652,2147483651,2147483652,2147483651,2147483652,2147483651,2147483652,2147483651,2147483652,2147483651,2147483652,2147483651,109,109,109,109,109,109,109,109,
121,122,109,109,109,109,109,109,109,109,109,109,109,109,109,109,144,144,144,144,109,109,109,109,109,109,109,109,109,109,109,109,109,109,109,109,109,109,109,109,109,87,5,5,5,5,5,5,5,5,5,5,5,5,5,5,109,109,109,109,109,109,121,122,
137,138,109,109,109,109,109,109,109,109,109,109,109,109,109,109,144,144,144,144,109,109,109,109,109,109,109,109,109,109,109,109,109,109,109,109,109,109,109,109,109,87,7,7,7,7,7,7,7,7,7,7,7,7,7,7,109,109,109,109,109,87,137,138,
121,122,109,109,109,109,109,109,109,109,109,109,109,109,109,109,144,144,144,144,109,109,109,109,109,109,109,109,13,14,109,109,109,109,109,109,109,109,109,109,109,109,109,109,109,109,109,109,109,109,109,109,109,109,109,109,109,109,109,109,109,87,121,122,
137,138,109,109,109,109,109,109,109,109,109,109,109,109,109,109,144,144,144,144,109,109,109,109,109,109,109,109,15,16,109,109,109,109,109,109,109,109,109,109,109,109,109,109,109,109,109,109,109,109,109,109,109,109,109,109,109,109,109,109,109,87,137,138,
121,122,109,109,109,109,109,109,109,109,109,109,109,109,109,109,144,144,144,144,109,109,109,109,109,109,109,109,13,14,13,14,13,14,109,109,109,109,109,109,109,109,109,109,109,109,109,109,109,109,109,109,109,109,109,109,109,109,109,109,109,87,121,122,
137,138,109,109,109,109,109,109,109,109,109,109,109,109,109,109,144,144,144,144,109,109,109,109,109,109,109,109,15,16,15,16,15,16,109,109,109,109,109,109,109,109,109,109,109,109,109,109,109,109,109,109,109,109,109,109,109,109,109,109,109,87,137,138,
121,122,109,109,109,109,109,109,109,109,109,109,109,109,109,109,144,144,144,144,109,109,109,109,109,109,109,109,13,14,13,14,13,14,109,109,109,109,109,109,109,109,109,109,109,109,109,109,109,109,109,109,109,109,109,109,109,109,109,109,109,87,121,122,
137,138,109,109,109,109,109,109,109,109,109,109,109,109,109,109,144,144,144,144,109,109,109,109,109,109,109,109,15,16,15,16,15,16,109,109,109,109,109,109,109,109,109,109,109,109,109,109,109,109,109,109,109,109,109,109,13,14,109,109,109,87,137,138,
121,122,109,109,109,109,109,109,109,109,109,109,109,109,109,109,144,144,144,144,109,109,109,109,109,109,13,14,42,109,109,109,13,14,13,14,109,109,109,109,109,109,109,109,109,109,109,109,109,109,109,109,109,109,109,109,15,16,109,109,109,87,121,122,
137,138,109,109,109,109,109,109,109,109,109,109,109,109,109,109,144,144,144,144,109,109,109,109,109,109,15,16,46,109,109,109,15,16,15,16,109,109,109,109,109,109,109,109,109,109,109,109,109,109,109,109,109,109,13,14,13,14,13,14,109,87,137,138,
121,122,109,109,109,109,109,109,109,109,109,109,109,109,109,109,144,144,144,144,109,109,109,109,109,109,109,109,109,109,109,109,109,109,109,109,109,109,109,109,109,109,109,109,109,109,109,109,109,109,109,109,109,109,15,16,15,16,15,16,109,87,121,122,
137,138,109,109,109,109,109,109,109,109,109,109,109,109,109,109,144,144,144,144,109,109,109,109,109,109,109,109,109,109,109,109,109,109,109,109,109,109,109,109,109,109,109,109,109,109,109,109,109,109,109,109,109,109,109,109,109,109,109,109,109,87,137,138,
121,122,109,109,109,109,109,109,109,109,109,109,109,109,109,109,144,144,144,144,109,109,109,109,109,109,109,109,109,109,109,109,109,109,109,109,109,109,109,109,109,109,109,109,109,109,109,109,109,109,109,109,109,109,109,109,109,109,109,109,109,87,121,122,
137,138,109,109,109,109,109,109,109,109,109,109,109,109,109,109,144,144,144,144,109,109,109,109,109,109,109,109,109,109,109,109,109,109,109,109,109,109,109,109,109,109,109,109,109,109,109,109,109,109,109,109,109,109,109,109,109,109,109,109,109,87,137,138,
121,122,109,109,109,109,109,109,109,109,109,109,109,109,109,109,144,144,144,144,109,109,109,109,109,109,144,144,144,144,109,109,109,109,109,109,109,109,109,109,273,273,273,273,273,273,109,109,273,273,109,109,109,109,109,109,109,109,109,109,109,87,121,122,
137,138,109,109,109,109,109,109,109,109,109,109,109,109,109,109,144,144,144,144,109,109,109,109,109,109,144,144,144,144,109,109,109,109,109,109,109,109,109,109,289,289,289,289,289,289,109,109,289,289,109,109,109,109,109,109,109,109,109,109,109,87,137,138,
121,122,109,109,109,109,109,109,109,109,109,109,109,109,109,109,144,144,144,144,109,109,109,109,109,109,144,144,144,144,109,109,109,109,109,109,109,109,109,109,309,310,309,310,309,310,309,310,109,109,109,109,109,109,109,109,109,109,109,109,109,87,121,122,
137,138,109,109,109,109,109,109,109,109,109,109,109,109,109,109,144,144,144,144,109,109,109,109,109,109,144,144,144,144,109,109,109,109,109,109,109,109,109,109,309,310,309,310,309,310,309,310,109,109,109,109,109,109,109,109,109,109,109,109,109,87,137,138,
121,122,109,109,109,109,109,109,109,109,109,109,109,109,109,109,144,144,144,144,109,109,109,109,109,109,109,109,109,109,109,109,109,109,109,109,109,109,109,109,109,109,109,109,309,310,63,64,109,109,109,109,109,109,109,109,109,109,109,109,109,87,121,122,
137,138,109,109,109,109,109,109,109,109,109,109,109,109,109,109,144,144,144,144,109,109,109,109,109,109,109,109,109,109,109,109,109,109,109,109,109,109,109,109,109,109,109,109,309,310,79,80,109,109,109,109,109,109,109,109,109,109,109,109,109,87,137,138,
121,122,109,109,109,109,109,109,109,109,109,109,109,109,109,109,144,144,144,144,109,109,109,109,109,109,109,109,109,109,109,109,109,109,109,109,109,109,109,109,109,109,109,109,109,109,109,109,109,109,109,109,109,109,109,109,109,109,109,109,109,87,121,122,
137,138,109,109,109,109,109,109,109,109,109,109,109,109,109,109,144,144,144,144,109,109,109,109,109,109,109,109,109,109,109,109,109,109,109,109,109,109,109,109,109,109,109,109,109,109,109,109,109,109,109,109,109,109,109,109,109,109,109,109,109,87,137,138,
121,122,113,113,113,113,113,113,113,113,1,2,1,2,1,2,144,144,144,144,1,2,1,2,1,2,1,2,1,2,109,109,109,109,109,109,144,144,109,109,109,109,109,109,109,109,109,109,109,109,109,109,109,109,109,109,109,109,109,109,109,87,121,122,
137,138,129,129,129,129,129,129,129,130,3,4,3,4,3,4,144,144,144,100,3,4,3,4,3,4,3,4,3,4,109,109,109,109,109,109,144,144,109,109,109,109,109,109,109,109,109,109,109,109,109,109,109,109,109,109,109,109,109,109,109,87,137,138,
121,122,13,14,109,109,109,109,109,87,1,2,5,5,5,5,25,25,25,100,5,5,5,5,5,5,5,6,1,2,109,109,109,109,109,109,109,109,144,144,185,185,185,185,109,109,109,109,109,109,109,109,109,109,109,109,109,109,109,109,109,87,121,122,
137,138,15,16,109,109,109,109,109,87,3,4,7,7,7,7,25,25,25,100,7,7,7,7,7,7,7,8,3,4,109,109,109,109,109,109,109,109,144,144,185,185,185,185,109,109,109,109,109,109,109,109,109,109,109,109,109,109,109,109,109,87,137,138,
121,122,109,109,109,109,109,109,13,14,5,6,25,25,25,25,25,25,25,25,25,25,25,25,25,25,25,100,1,2,109,109,109,109,109,109,109,13,14,42,109,109,109,109,109,109,109,109,109,109,109,109,109,109,109,109,109,109,109,42,109,87,121,122,
137,138,109,109,109,109,109,109,15,16,115,116,25,25,25,25,25,25,25,25,25,25,25,25,25,25,25,100,3,4,109,109,109,109,109,109,109,15,16,46,109,109,109,109,109,109,109,109,109,109,109,109,109,109,109,109,109,109,109,46,109,87,137,138,
121,122,109,109,109,109,109,109,13,14,131,132,25,25,25,25,25,25,25,25,25,25,25,25,25,25,25,100,1,2,109,109,109,109,109,109,109,109,109,109,109,109,109,109,109,109,109,109,109,109,109,109,109,109,109,109,13,14,109,109,109,87,121,122,
137,138,109,109,109,109,109,109,15,16,110,125,25,25,25,25,25,25,25,25,25,25,25,25,25,25,25,100,3,4,109,109,109,109,109,109,109,109,109,109,109,109,109,109,109,109,109,109,109,109,109,109,109,109,109,109,15,16,109,109,109,87,137,138,
121,122,109,109,13,14,109,109,109,87,1,2,25,25,25,25,25,25,25,25,25,25,25,25,157,158,25,100,1,2,109,109,109,109,109,109,109,109,109,109,109,109,109,109,109,109,109,109,109,109,109,109,109,109,13,14,109,109,149,150,149,100,121,122,
137,138,109,109,15,16,109,109,109,87,3,4,25,25,25,25,25,25,25,25,25,25,25,25,159,160,25,100,3,4,109,109,109,109,109,109,109,109,109,109,109,109,109,109,109,109,109,109,109,109,109,109,109,109,15,16,109,109,149,150,149,100,137,138,
121,122,109,109,109,109,109,109,109,87,1,2,1,2,1,2,1,2,1,2,1,2,1,2,1,2,1,2,1,2,109,109,109,109,109,109,109,109,109,109,109,109,109,109,109,109,109,109,109,109,109,109,109,109,109,109,149,150,149,150,149,100,121,122,
137,138,109,109,109,109,109,109,109,87,3,4,3,4,3,4,3,4,3,4,3,4,3,4,3,4,3,4,3,4,109,109,109,109,109,109,109,109,109,109,109,109,109,109,109,109,109,109,109,109,109,109,109,109,109,109,149,150,149,150,149,100,137,138,
121,122,13,14,109,109,109,109,109,87,5,5,5,5,5,5,5,5,5,5,5,5,5,5,5,5,5,5,5,148,109,109,109,109,109,109,109,109,109,109,109,109,109,109,109,109,109,109,109,109,109,109,149,150,149,150,149,150,149,150,149,100,121,122,
137,138,15,16,109,109,109,109,109,87,7,7,7,7,7,7,7,7,7,7,7,7,7,7,7,7,7,7,7,148,109,109,109,109,109,109,109,109,109,109,109,109,109,109,109,109,109,109,109,109,109,109,149,150,149,150,149,150,149,150,149,100,137,138,
121,122,13,14,153,154,109,109,109,109,109,109,109,109,109,109,109,109,109,109,109,109,13,14,13,14,13,14,109,148,109,109,109,109,109,109,109,109,109,109,109,109,109,109,109,109,109,109,109,109,149,150,149,150,149,150,149,150,149,150,149,100,121,122,
137,138,15,16,155,156,109,109,109,109,109,109,109,109,109,109,109,109,109,109,109,109,15,16,15,16,15,16,109,148,109,109,109,109,109,109,109,109,109,109,109,109,109,109,109,109,109,109,109,109,149,150,149,150,149,150,149,150,149,150,149,100,137,138,
121,122,121,122,121,122,121,122,121,122,121,122,121,122,121,122,121,122,121,122,121,122,121,122,121,122,121,122,121,122,121,122,121,122,121,122,121,122,121,122,109,109,109,109,121,122,121,122,121,122,121,122,121,122,121,122,121,122,121,122,121,122,121,122,
135,136,135,136,135,136,135,136,135,136,135,136,135,136,135,136,135,136,135,136,135,136,135,136,135,136,135,136,135,136,135,136,135,136,135,136,135,136,135,136,109,109,109,87,135,136,135,136,135,136,135,136,135,136,135,136,135,136,135,136,135,136,135,136
</data>
 </layer>
</map>
