<?xml version="1.0" encoding="UTF-8"?>
<map version="1.10" tiledversion="1.11.2" orientation="orthogonal" renderorder="right-down" width="64" height="64" tilewidth="8" tileheight="8" infinite="0" nextlayerid="2" nextobjectid="1">
 <tileset firstgid="1" source="town_set.tsx"/>
 <layer id="1" name="Tile Layer 1" width="64" height="64">
  <data encoding="csv">
121,122,121,122,121,122,121,122,121,122,121,122,121,122,121,122,121,122,121,122,121,122,121,122,121,122,121,122,121,122,121,122,121,122,121,122,121,122,121,122,109,109,109,109,109,109,109,109,109,109,109,109,109,109,109,109,109,109,109,109,109,109,109,109,
137,138,135,136,135,136,135,136,135,136,135,136,135,136,135,136,135,136,135,136,135,136,135,136,135,136,135,136,135,136,135,136,135,136,135,136,135,136,135,136,109,109,109,109,109,109,109,109,109,109,109,109,109,109,109,109,109,109,109,109,109,109,109,109,
121,122,13,14,13,14,109,109,109,109,109,109,109,109,109,109,109,109,109,109,109,109,109,109,109,109,109,109,109,109,109,109,109,109,109,109,109,109,109,109,109,109,109,109,109,109,109,109,109,109,109,109,109,109,109,109,121,122,121,122,109,109,109,109,
137,138,15,16,15,16,109,109,109,109,109,109,109,109,109,109,109,109,109,109,109,109,109,109,109,109,109,109,109,109,109,109,109,109,109,109,109,109,109,109,109,109,109,109,109,109,109,109,109,109,109,109,109,109,109,87,135,136,135,136,109,109,109,109,
121,122,13,14,121,122,121,122,121,122,121,122,121,122,121,122,121,122,109,109,109,109,109,109,109,109,109,109,109,109,109,109,109,109,109,109,109,109,109,109,109,109,109,109,109,109,109,109,109,109,109,109,109,109,109,109,109,109,109,109,109,109,109,109,
137,138,15,16,137,138,135,136,135,136,135,136,135,136,135,136,137,138,109,109,109,109,109,109,109,109,109,109,109,109,109,109,109,109,109,109,109,109,109,109,109,109,109,109,109,109,109,109,109,109,109,109,109,109,109,109,109,109,109,109,109,109,109,109,
121,122,109,87,121,122,25,25,25,25,27,28,27,28,25,100,121,122,13,14,109,42,109,109,109,109,109,109,109,109,109,109,109,109,109,109,109,109,109,109,109,109,109,109,109,109,109,109,109,109,109,109,109,109,109,109,109,109,109,109,109,109,109,109,
137,138,109,87,137,138,25,25,25,25,43,44,43,44,25,100,137,138,13,13,109,46,109,109,109,109,109,109,109,109,109,109,109,109,109,109,109,109,109,109,109,109,109,109,109,109,109,109,109,109,109,109,109,109,109,109,109,109,109,109,109,109,109,109,
121,122,109,87,121,122,25,25,25,25,120,111,33,34,25,100,121,122,121,122,13,14,13,14,109,109,109,109,109,109,109,109,109,109,109,109,109,109,109,109,109,109,109,109,109,109,109,109,109,109,109,109,109,109,109,109,109,109,109,109,109,109,109,109,
137,138,109,87,137,138,25,25,25,25,41,41,47,48,25,100,135,136,135,136,13,13,13,13,109,109,109,109,109,109,109,109,109,109,109,109,109,109,109,109,109,109,109,109,109,109,109,109,109,109,109,109,109,109,109,109,109,109,109,109,109,109,109,109,
121,122,109,87,121,122,157,158,25,25,25,25,25,25,25,25,25,25,144,144,144,144,144,144,109,109,109,109,109,109,109,109,109,109,109,109,109,109,109,109,109,87,1,2,1,2,1,2,1,2,1,2,1,2,1,2,109,109,109,109,109,109,109,109,
137,138,109,87,137,138,159,160,25,25,25,25,25,25,25,25,25,25,144,144,144,144,144,144,109,109,109,109,109,109,109,109,109,109,109,109,109,109,109,109,109,87,3,4,3,4,3,4,3,4,3,4,3,4,3,4,109,109,109,109,109,109,109,109,
121,122,109,87,121,122,121,122,121,122,121,122,121,122,121,122,121,122,121,122,144,144,144,144,144,144,144,144,144,144,144,144,144,144,144,144,144,144,144,144,109,87,1,2,5,5,5,5,5,5,5,5,5,5,1,2,109,109,109,109,109,109,121,122,
137,138,109,87,135,136,135,136,135,136,135,136,135,136,135,136,135,136,135,136,144,144,144,144,144,144,144,144,144,144,144,144,144,144,144,144,144,144,144,144,109,87,3,4,7,7,7,7,7,7,7,7,7,7,3,4,109,109,109,109,109,87,137,138,
121,122,109,109,109,109,109,109,109,109,109,109,109,109,109,109,109,109,109,109,144,144,144,144,144,144,144,144,144,144,144,144,144,144,144,144,144,144,144,144,109,87,5,5,2147483673,2147483673,2147483673,25,25,25,25,25,25,100,1,2,109,109,109,109,109,87,121,122,
137,138,109,109,109,109,109,109,109,109,109,109,109,109,109,109,109,109,109,109,144,144,144,144,144,144,144,144,144,144,144,144,144,144,144,144,144,144,144,144,109,87,7,7,2147483673,2147483673,2147483673,25,53,54,55,56,25,100,3,4,109,109,109,109,109,87,135,136,
121,122,113,113,113,113,113,113,113,113,113,113,113,113,113,113,113,113,109,109,144,144,144,144,109,109,109,109,109,109,109,109,109,109,109,109,109,144,144,144,144,144,2147483673,2147483673,2147483673,2147483673,2147483673,2147483673,51,51,51,51,2147483673,100,1,2,109,109,109,109,109,109,109,109,
137,138,129,129,129,129,129,129,129,129,129,129,129,129,129,129,129,129,109,109,144,144,144,144,109,109,109,109,109,109,109,109,109,109,109,109,109,144,144,144,144,144,2147483673,2147483673,2147483673,2147483673,2147483673,2147483673,2147483673,2147483673,2147483673,2147483673,2147483673,100,3,4,109,109,109,109,109,109,109,109,
121,122,109,109,109,109,109,109,109,109,109,109,109,109,109,109,109,109,109,109,144,144,144,144,109,109,109,109,109,109,109,109,109,109,109,109,109,144,144,144,144,144,2147483673,2147483673,2147483673,2147483673,2147483673,2147483673,2147483673,2147483673,2147483673,2147483673,2147483673,100,1,2,109,109,109,109,109,109,109,109,
135,136,109,109,109,109,109,109,109,109,109,109,109,109,109,109,109,109,109,109,144,144,144,144,109,109,109,109,109,109,109,109,109,109,109,109,109,144,144,144,144,144,2147483673,2147483673,2147483673,2147483673,2147483673,2147483673,2147483673,2147483673,2147483673,2147483673,2147483673,100,3,4,109,109,109,109,109,109,109,109,
144,144,144,144,144,144,144,144,144,144,144,144,144,144,144,144,144,144,144,144,144,144,144,144,109,109,109,109,109,109,109,109,109,109,109,109,109,109,109,109,109,87,1,2,23,24,88,2147483673,2147483673,2147483673,157,158,88,100,1,2,109,109,109,109,109,109,121,122,
144,144,144,144,144,144,144,144,144,144,144,144,144,144,144,144,144,144,144,144,144,144,144,144,109,109,109,109,109,109,109,109,109,109,109,109,109,109,109,109,109,87,3,4,107,40,2147483673,2147483673,2147483673,2147483673,159,160,88,100,3,4,109,109,109,109,109,87,135,136,
144,144,144,144,144,144,144,144,144,144,144,144,144,144,144,144,144,144,144,144,144,144,144,144,109,109,109,109,109,109,109,109,109,109,109,109,109,109,109,109,109,87,1,2,1,2,1,2,1,2,1,2,1,2,1,2,109,109,109,109,109,109,109,109,
144,144,144,144,144,144,144,144,144,144,144,144,144,144,144,144,144,144,144,144,144,144,144,144,109,109,109,109,109,109,109,109,109,109,109,109,109,109,109,109,109,87,3,4,3,4,3,4,3,4,3,4,3,4,3,4,109,109,109,109,109,109,109,109,
121,122,109,109,109,109,109,109,109,109,109,109,109,109,109,109,144,144,144,144,109,109,109,109,109,109,109,109,109,109,109,109,109,109,109,109,109,109,109,109,109,87,5,5,5,5,5,5,5,5,5,5,5,5,5,5,109,109,109,109,109,109,121,122,
137,138,109,109,109,109,109,109,109,109,109,109,109,109,109,109,144,144,144,144,109,109,109,109,109,109,109,109,109,109,109,109,109,109,109,109,109,109,109,109,109,87,7,7,7,7,7,7,7,7,7,7,7,7,7,7,109,109,109,109,109,87,137,138,
121,122,109,109,109,109,109,109,109,109,109,109,109,109,109,109,144,144,144,144,109,109,109,109,109,109,109,109,13,14,109,109,109,109,109,109,109,109,109,109,109,109,109,109,109,109,109,109,109,109,109,109,109,109,109,109,109,109,109,109,109,87,121,122,
137,138,109,109,109,109,109,109,109,109,109,109,109,109,109,109,144,144,144,144,109,109,109,109,109,109,109,109,15,16,109,109,109,109,109,109,109,109,109,109,109,109,109,109,109,109,109,109,109,109,109,109,109,109,109,109,109,109,109,109,109,87,137,138,
121,122,109,109,109,109,109,109,109,109,109,109,109,109,109,109,144,144,144,144,109,109,109,109,109,109,109,109,13,14,13,14,13,14,109,109,109,109,109,109,109,109,109,109,109,109,109,109,109,109,109,109,109,109,109,109,109,109,109,109,109,87,121,122,
137,138,109,109,42,42,109,109,109,109,109,109,109,109,109,109,144,144,144,144,109,109,109,109,109,109,109,109,15,16,15,16,15,16,109,109,109,109,109,109,109,109,109,109,109,109,109,109,109,109,109,109,109,109,109,109,109,109,109,109,109,87,137,138,
121,122,109,109,46,46,109,109,109,109,109,109,109,109,109,109,144,144,144,144,109,109,109,109,109,109,109,109,13,14,13,14,13,14,109,109,109,109,109,109,109,109,109,109,109,109,109,109,109,109,109,109,109,109,109,109,109,109,109,109,109,87,121,122,
137,138,109,109,42,42,42,42,109,109,109,109,109,109,109,109,144,144,144,144,109,109,109,109,109,109,109,109,15,16,15,16,15,16,109,109,109,109,109,109,109,109,109,109,109,109,109,109,109,109,109,109,109,109,109,109,13,14,109,109,109,87,137,138,
121,122,109,109,46,46,46,46,109,109,109,109,109,109,109,109,144,144,144,144,109,109,109,109,109,109,13,14,42,109,109,109,13,14,13,14,109,109,109,109,109,109,109,109,109,109,109,109,109,109,109,109,109,109,109,109,15,16,109,109,109,87,121,122,
137,138,109,109,42,42,42,42,109,109,109,109,109,109,109,109,144,144,144,144,109,109,109,109,109,109,15,16,46,109,109,109,15,16,15,16,109,109,109,109,109,109,109,109,109,109,109,109,109,109,109,109,109,109,13,14,13,14,13,14,109,87,137,138,
121,122,109,109,46,46,46,46,109,109,109,109,109,109,109,109,144,144,144,144,109,109,109,109,109,109,109,109,109,109,109,109,109,109,109,109,109,109,109,109,109,109,109,109,109,109,109,109,109,109,109,109,109,109,15,16,15,16,15,16,109,87,121,122,
137,138,109,109,109,109,109,109,109,109,109,109,109,109,109,109,144,144,144,144,109,109,109,109,109,109,109,109,109,109,109,109,109,109,109,109,109,109,109,109,109,109,109,109,109,109,109,109,109,109,109,109,109,109,109,109,109,109,109,109,109,87,137,138,
121,122,109,109,109,109,109,109,109,109,109,109,109,109,109,109,144,144,144,144,109,109,109,109,109,109,109,109,109,109,109,109,109,109,109,109,109,109,109,109,109,109,109,109,109,109,109,109,109,109,109,109,109,109,109,109,109,109,109,109,109,87,121,122,
137,138,109,109,109,109,109,109,109,109,109,109,109,109,109,109,144,144,144,144,109,109,109,109,109,109,109,109,109,109,109,109,109,109,109,109,109,109,109,109,109,109,109,109,109,109,109,109,109,109,109,109,109,109,109,109,109,109,109,109,109,87,137,138,
121,122,109,109,109,109,109,109,109,109,109,109,109,109,109,109,144,144,144,144,109,109,109,109,109,109,144,144,144,144,109,109,109,109,109,109,109,109,109,109,113,113,113,113,113,113,109,109,113,113,109,109,109,109,109,109,19,20,19,20,19,20,19,20,
137,138,109,109,109,109,109,109,109,109,109,109,109,109,109,109,144,144,144,144,109,109,109,109,109,109,144,144,144,144,109,109,109,109,109,109,109,109,109,109,129,129,129,129,129,129,144,144,129,129,109,109,109,109,109,109,11,12,11,12,11,12,11,12,
121,122,109,109,109,109,109,109,109,109,109,109,109,109,109,109,144,144,144,144,109,109,109,109,109,109,144,144,144,144,109,109,109,109,109,109,109,109,109,109,149,150,149,150,149,150,149,150,109,109,109,109,109,109,109,109,9,10,109,109,109,87,121,122,
137,138,109,109,109,109,109,109,109,109,109,109,109,109,109,109,144,144,144,144,109,109,109,109,109,109,144,144,144,144,109,109,109,109,109,109,109,109,109,109,149,150,149,150,149,150,149,150,109,109,109,109,109,109,109,109,11,12,109,109,109,87,137,138,
121,122,109,109,109,109,109,109,109,109,109,109,109,109,109,109,144,144,144,144,109,109,109,109,109,109,109,109,109,109,109,109,109,109,109,109,109,109,109,109,109,109,109,109,149,150,63,64,109,109,109,109,19,20,19,20,9,10,109,109,109,87,121,122,
137,138,109,109,109,109,109,109,109,109,109,109,109,109,109,109,144,144,144,144,109,109,109,109,109,109,109,109,109,109,109,109,109,109,109,109,109,109,109,109,109,109,109,109,149,150,79,80,109,109,109,109,11,12,11,12,11,12,109,109,109,87,137,138,
121,122,109,109,109,109,109,109,109,109,109,109,109,109,109,109,144,144,144,144,109,109,109,109,109,109,109,109,109,109,109,109,109,109,109,109,109,109,109,109,109,109,109,109,109,109,109,109,19,20,19,20,9,10,109,109,109,109,109,109,109,87,121,122,
137,138,109,109,109,109,109,109,109,109,109,109,109,109,109,109,144,144,144,144,109,109,109,109,109,109,109,109,109,109,109,109,109,109,109,109,109,109,109,109,109,109,109,109,109,109,109,109,11,12,11,12,11,12,109,109,109,109,109,109,109,87,137,138,
121,122,113,113,113,113,113,113,113,113,1,2,1,2,1,2,144,144,144,144,1,2,1,2,1,2,1,2,1,2,109,109,109,109,109,109,144,144,109,109,109,109,109,109,109,109,19,20,9,10,109,109,109,109,109,109,109,109,109,109,109,87,121,122,
137,138,129,129,129,129,129,129,129,130,3,4,3,4,3,4,144,144,144,100,3,4,3,4,3,4,3,4,3,4,109,109,109,109,109,109,144,144,109,109,109,109,109,109,109,109,11,12,11,12,109,109,109,109,109,109,109,109,109,109,109,87,137,138,
121,122,13,14,109,109,109,109,109,87,1,2,5,5,5,5,25,25,25,100,5,5,5,5,5,5,5,6,1,2,109,109,109,109,109,109,109,109,144,144,25,25,25,25,109,109,9,10,109,109,109,109,109,109,109,109,109,109,109,109,109,87,121,122,
137,138,15,16,109,109,109,109,109,87,3,4,7,7,7,7,25,25,25,100,7,7,7,7,7,7,7,8,3,4,109,109,109,109,109,109,109,109,144,144,25,25,25,25,109,109,35,36,109,109,109,109,109,109,109,109,109,109,109,109,109,87,137,138,
121,122,109,109,109,109,109,109,13,14,5,6,25,25,25,25,25,25,25,25,25,25,25,25,25,25,25,100,1,2,109,109,109,109,109,109,109,13,14,42,109,109,109,109,109,109,9,10,109,109,109,109,109,109,109,109,109,109,109,42,109,87,121,122,
137,138,109,109,109,109,109,109,15,16,115,116,25,25,25,25,25,25,25,25,25,25,25,25,25,25,25,100,3,4,109,109,109,109,109,109,109,15,16,46,109,109,109,109,109,109,11,12,109,109,109,109,109,109,109,109,109,109,109,46,109,87,137,138,
121,122,109,109,109,109,109,109,13,14,131,132,25,25,25,25,25,25,25,25,25,25,25,25,25,25,25,100,1,2,109,109,109,109,109,109,109,109,109,109,109,109,19,20,19,20,9,10,109,109,109,109,109,109,109,109,13,14,109,109,109,87,121,122,
137,138,109,109,109,109,109,109,15,16,110,125,25,25,25,25,25,25,25,25,25,25,25,25,25,25,25,100,3,4,109,109,109,109,109,109,109,109,109,109,109,109,11,12,11,12,11,12,109,109,109,109,109,109,109,109,15,16,109,109,109,87,137,138,
121,122,109,109,13,14,109,109,109,87,1,2,25,25,25,25,25,25,25,25,25,25,25,25,157,158,25,100,1,2,109,109,109,109,109,109,109,109,109,109,109,109,9,10,109,109,109,109,109,109,109,109,109,109,13,14,109,109,149,150,149,100,121,122,
137,138,109,109,15,16,109,109,109,87,3,4,25,25,25,25,25,25,25,25,25,25,25,25,159,160,25,100,3,4,109,109,109,109,109,109,109,109,109,109,109,109,11,12,109,109,109,109,109,109,109,109,109,109,15,16,109,109,149,150,149,100,137,138,
121,122,109,109,109,109,109,109,109,87,1,2,1,2,1,2,1,2,1,2,1,2,1,2,1,2,1,2,1,2,109,109,109,109,109,109,109,109,109,109,19,20,9,10,109,109,109,109,109,109,109,109,109,109,109,109,149,150,149,150,149,100,121,122,
137,138,109,109,109,109,109,109,109,87,3,4,3,4,3,4,3,4,3,4,3,4,3,4,3,4,3,4,3,4,109,109,109,109,109,109,109,109,109,109,11,12,11,12,109,109,109,109,109,109,109,109,109,109,109,109,149,150,149,150,149,100,137,138,
121,122,13,14,109,109,109,109,109,87,5,5,5,5,5,5,5,5,5,5,5,5,5,5,5,5,5,5,5,148,109,109,109,109,109,109,109,109,109,109,9,10,9,10,109,109,109,109,109,109,109,109,149,150,149,150,149,150,149,150,149,100,121,122,
137,138,15,16,109,109,109,109,109,87,7,7,7,7,7,7,7,7,7,7,7,7,7,7,7,7,7,7,7,148,109,109,109,109,109,109,109,109,109,109,11,12,11,12,109,109,109,109,109,109,109,109,149,150,149,150,149,150,149,150,149,100,137,138,
121,122,13,14,153,154,109,109,109,109,109,109,109,109,109,109,109,109,109,109,109,109,13,14,13,14,13,14,109,148,109,109,109,109,109,109,109,109,109,109,9,10,9,10,109,109,109,109,109,109,149,150,149,150,149,150,149,150,149,150,149,100,121,122,
137,138,15,16,155,156,109,109,109,109,109,109,109,109,109,109,109,109,109,109,109,109,15,16,15,16,15,16,109,148,109,109,109,109,109,109,109,109,109,109,11,12,11,12,109,109,109,109,109,109,149,150,149,150,149,150,149,150,149,150,149,100,137,138,
121,122,121,122,121,122,121,122,121,122,121,122,121,122,121,122,121,122,121,122,121,122,121,122,121,122,121,122,121,122,121,122,121,122,121,122,121,122,121,122,9,10,9,10,121,122,121,122,121,122,121,122,121,122,121,122,121,122,121,122,121,122,121,122,
135,136,135,136,135,136,135,136,135,136,135,136,135,136,135,136,135,136,135,136,135,136,135,136,135,136,135,136,135,136,135,136,135,136,135,136,135,136,135,136,11,12,11,12,135,136,135,136,135,136,135,136,135,136,135,136,135,136,135,136,135,136,135,136
</data>
 </layer>
</map>
